X: 1983
T: Yemenimde Hâre Var
C: (Anonim)
O: Turkey
F: http://compmusic.upf.edu/node/140
N: mahur--turku--sofyan--yemenimde_hare_var--
N: makam= mahur
N: form= turku
N: usul= sofyan = 4/4
M: 4/4
L: 1/16
K: C ^9/8f   
Q: 1/4=90
%%MIDI tuningsystem comma53
g3=f e3d c3d e2z2  | =f3e d3c B3c d2z2  | \
w:  ARANAĞME  |   | 
z2GA B2B2 z2AB c2c2  | 
w:   | 
z2de d2c2 B3A G4  | g3=f e3d c3d e2z2  | \
w:   |  ARANAĞME  | 
=f3e d3c B3c d2z2  | 
w:   | 
z2GA B2B2 z2AB c2c2  | z2de d2c2 B3A G4  | \
w:   |   | 
g2g14  | g16  | 
w:  Of  of   |   | 
z4 g2g2 g4 d4  | e4 f2a2 g4 =f2e2  | \
w:  Ye me nim de   |  hâ re  *  var    | 
d2e4d2 d3c c3B  | B3A A3G GABc d4  | 
w:  Yü re  *  ğim *  de   |  yâ *  re  *  var    | 
d2e4d2 d3c c3B  | B3A A3G G4 d2ef  | \
w:  Yü re  *  ğim *  de   |  yâ *  re  *  var   SAZ  | 
g4 g2g2 g4 d4  | e4 f2a2 g4 =f2e2  | 
w:  *  Ne  ben_ öl düm   |  kur tul *  dum    | 
d2e4d2 d3c c3B  | B3A A3G GABc d4  | \
w:  Ne  bu  *  der *  de   |  ça *  re  *  var    | 
d2e4d2 d3c c3B  | 
w:  Ne  bu  *  der *  de   | 
B3A A3G G4 z4  | G2e4d2 d3c c3B  | B3A A3G GABc d4  | 
w:  ça *  re  *  var    |  Of  a man  a *  man   |  hoş  *  dil *  li    | 
d2e4d2 d3c c2B2  | B3A A3G G4 z4  | G2e4d2 d2c2 c2B2  | \
w:  Ba şın da  yaz *  ma sı   |  in *  ci *  li    |  Çü rüt tüm  o tuz_ i ki   | 
B3A A2G2 GABc d4  | 
w:  men *  di *  li    | 
d2e2 e2d2 d2c2 c2B2  | B3A A3G G4 z4  | \
w:  Bu la ma dım  o  yâ rin   |  den *  gi *  ni    | 
g3=f e3d c3d e2z2  | 
w:  ARANAĞME  | 
=f3e d3c B3c d2z2  | z2GA B2B2 z2AB c2c2  | \
w:   |   | 
z2de d2c2 B3A G4  | 
w:   | 
g3=f e3d c3d e2z2  | =f3e d3c B3c d2z2  | \
w:  ARANAĞME  |   | 
z2GA B2B2 z2AB c2c2  | 
w:   | 
z2de d2c2 B3A G4  | g2g14  | g16  | z4 g2g2 g4 d4  | \
w:   |  Of  of   |   |  Ye me nim de   | 
e4 f2a2 g4 =f2e2  | 
w:  hâ re  *  var    | 
d2e4d2 d3c c3B  | B3A A3G GABc d4  | \
w:  Yü re  *  ğim *  de   |  yâ *  re  *  var    | 
d2e4d2 d3c c3B  | 
w:  Yü re  *  ğim *  de   | 
B3A A3G G4 d2ef  | g4 g2g2 g4 d4  | e4 f2a2 g4 =f2e2  | \
w:  yâ *  re  *  var   SAZ  |  *  Ne  ben_ öl düm   |  kur tul *  dum    | 
d2e4d2 d3c c3B  | 
w:  Ne  bu  *  der *  de   | 
B3A A3G GABc d4  | d2e4d2 d3c c3B  | \
w:  ça *  re  *  var    |  Ne  bu  *  der *  de   | 
B3A A3G G4 z4  | 
w:  ça *  re  *  var    | 
G2e4d2 d3c c3B  | B3A A3G GABc d4  | \
w:  Of  a man  a *  man   |  hoş  *  dil *  li    | 
d2e4d2 d3c c2B2  | 
w:  Ba şın da  yaz *  ma sı   | 
B3A A3G G4 z4  | G2e4d2 d2c2 c2B2  | \
w:  in *  ci *  li    |  Çü rüt tüm  o tuz_ i ki   | 
B3A A2G2 GABc d4  | 
w:  men *  di *  li    | 
d2e2 e2d2 d2c2 c2B2  | B3A A3G G4 z4  | |


